proprietary/assets/icons/gebruiksvoorwerpen/wegwerpaansteker.svg

<svg enable-background="new 0 0 64 64" height="64" viewBox="0 0 64 64" width="64" xmlns="http://www.w3.org/2000/svg"><path d="m0 0h64v64h-64z" fill="none"/><path d="m36 12.9c1.2-1.3 2-3 2-4.9 0-3.9-3.1-7-7-7-3.2 0-5.8 2.1-6.7 5h4.7c3.8 0 6.9 3.1 7 6.9zm8 8.1h-10v-8c0-2.8-2.2-5-5-5h-9c-1.1 0-2 .9-2 2v49c0 1.7 1.3 3 3 3h22c1.7 0 3-1.3 3-3v-36c0-1.1-.9-2-2-2zm-5.1 24.7c-.6 3.3-2.9 4.9-5.5 5.2.6-.9 1.2-2.5 1.2-4 0-3.3-2.6-5.9-2.6-5.9s-2.6 2.6-2.6 5.9c0 1.5.6 3.1 1.2 4-2.5-.3-4.8-1.9-5.5-5.2-1-5.3 4.5-12.7 6.9-14.7 2.4 2.1 7.9 9.4 6.9 14.7zm5.9-32.1-8.8 1.4v3.7l9.2-1.4c.5-.1.8-.5.8-1v-1.7c0-.6-.5-1.1-1.2-1z"/></svg>

<?xml version="1.0" encoding="utf-8"?>
<!-- Generator: Adobe Illustrator 21.0.2, SVG Export Plug-In . SVG Version: 6.00 Build 0)  -->
<!DOCTYPE svg PUBLIC "-//W3C//DTD SVG 1.1//EN" "http://www.w3.org/Graphics/SVG/1.1/DTD/svg11.dtd">
<svg version="1.1" xmlns="http://www.w3.org/2000/svg" xmlns:xlink="http://www.w3.org/1999/xlink" x="0px" y="0px" width="64px"
	 height="64px" viewBox="0 0 64 64" style="enable-background:new 0 0 64 64;" xml:space="preserve">
<style type="text/css">
	.st0{fill:none;}
</style>
<g id="_x36_4px_Box">
	<rect class="st0" width="64" height="64"/>
</g>
<g id="Icon">
	<g>
		<g>
			<path d="M36,12.9c1.2-1.3,2-3,2-4.9c0-3.9-3.1-7-7-7c-3.2,0-5.8,2.1-6.7,5H29C32.8,6,35.9,9.1,36,12.9z M44,21H34v-8
				c0-2.8-2.2-5-5-5h-9c-1.1,0-2,0.9-2,2v49c0,1.7,1.3,3,3,3h22c1.7,0,3-1.3,3-3V23C46,21.9,45.1,21,44,21z M38.9,45.7
				c-0.6,3.3-2.9,4.9-5.5,5.2c0.6-0.9,1.2-2.5,1.2-4c0-3.3-2.6-5.9-2.6-5.9c0,0-2.6,2.6-2.6,5.9c0,1.5,0.6,3.1,1.2,4
				c-2.5-0.3-4.8-1.9-5.5-5.2c-1-5.3,4.5-12.7,6.9-14.7C34.4,33.1,39.9,40.4,38.9,45.7z M44.8,13.6L36,15v3.7l9.2-1.4
				c0.5-0.1,0.8-0.5,0.8-1v-1.7C46,14,45.5,13.5,44.8,13.6z"/>
		</g>
	</g>
</g>
</svg>
